X:1
T:Here's a Health to the Company
M:2/4
L:1/8
K:C
g-f| e A2 B| A E2 G| A A2 B| A3 A| d d2 e| g e2 d| c A2 F| G3 A| d d2 e|\
 g e2 d| c A2 E| G2 g3/2 f/2| e A2 B| A E2 G| A A2 G| A2||
